svg/solid/bxs-arrow-to-top.svg

<svg xmlns="http://www.w3.org/2000/svg" width="24" height="24"><path d="M6 4h12v2H6zm5 10v6h2v-6h5l-6-6-6 6z"/></svg>

<svg xmlns="http://www.w3.org/2000/svg" width="24" height="24" viewBox="0 0 24 24"><path d="M6 4H18V6H6zM11 14L11 20 13 20 13 14 18 14 12 8 6 14z"/></svg>
